svg/300/sharp/tv_with_assistant-fill.svg

<svg xmlns="http://www.w3.org/2000/svg" width="48" height="48" viewBox="0 -960 960 960"><path d="M420-464.616q14.692 0 25.038-10.346T455.384-500q0-14.692-10.346-25.038T420-535.384q-14.692 0-25.038 10.346T384.616-500q0 14.692 10.346 25.038T420-464.616Zm120 0q14.692 0 25.038-10.346T575.384-500q0-14.692-10.346-25.038T540-535.384q-14.692 0-25.038 10.346T504.616-500q0 14.692 10.346 25.038T540-464.616Zm-240 0q14.692 0 25.038-10.346T335.384-500q0-14.692-10.346-25.038T300-535.384q-14.692 0-25.038 10.346T264.616-500q0 14.692 10.346 25.038T300-464.616Zm360 0q14.692 0 25.038-10.346T695.384-500q0-14.692-10.346-25.038T660-535.384q-14.692 0-25.038 10.346T624.616-500q0 14.692 10.346 25.038T660-464.616ZM179.616-150.771v-69.23h-79.615v-559.998h759.998v559.998h-79.615v69.23h-17.615l-23.308-69.23H221.923l-24.692 69.23h-17.615Z"/></svg>

<svg xmlns="http://www.w3.org/2000/svg" width="48" height="48" viewBox="0 -960 960 960"><path d="M420-464.62q14.69 0 25.04-10.34 10.34-10.35 10.34-25.04t-10.34-25.04q-10.35-10.34-25.04-10.34t-25.04 10.34q-10.34 10.35-10.34 25.04t10.34 25.04q10.35 10.34 25.04 10.34Zm120 0q14.69 0 25.04-10.34 10.34-10.35 10.34-25.04t-10.34-25.04q-10.35-10.34-25.04-10.34t-25.04 10.34q-10.34 10.35-10.34 25.04t10.34 25.04q10.35 10.34 25.04 10.34Zm-240 0q14.69 0 25.04-10.34 10.34-10.35 10.34-25.04t-10.34-25.04q-10.35-10.34-25.04-10.34t-25.04 10.34q-10.34 10.35-10.34 25.04t10.34 25.04q10.35 10.34 25.04 10.34Zm360 0q14.69 0 25.04-10.34 10.34-10.35 10.34-25.04t-10.34-25.04q-10.35-10.34-25.04-10.34t-25.04 10.34q-10.34 10.35-10.34 25.04t10.34 25.04q10.35 10.34 25.04 10.34ZM179.62-150.77V-220H100v-560h760v560h-79.62v69.23h-17.61L739.46-220H221.92l-24.69 69.23h-17.61Z"/></svg>
